X: 24
T: Ya ru
%%abc-version 2.0
%%abcx-abcm2ps-target-version 5.9.1 (29 Sep 2008)
%%abc-creator hum2abc beta
%%abcx-conversion-date 2013/10/02 07:44:27
%%abc-edited-by Helmut Schaffrath
%%humdrum-veritas 283532286
%%humdrum-veritas-data 1800634831
%%continueall 1
%%barnumbers 0
L: 1/16
M: 3/4
K: Bb
z8z2 c' c' [I:setbarnb 1]| 
[M:2/4]d'2d'6 | 
d'4-d'3 d' | 
e'4d'4 | 
[M:3/4]c'4b2> c'2d'4 | 
[M:2/4]c'4b3 c' | 
b2a6- | 
a8 | 
b6c'2 | 
c' ba6- | 
[M:3/4]a8b2 a2 | 
[M:2/4]g8- | 
g2> b2 a b a g | 
a g^f6- | 
f2> a2g4 | 
z2 d e ^f2 g2- | 
g8- | 
g8 | 
b2> c'2 a3 b | 
g2> a2^f4 | 
e4g3 a | 
^f2 e e e2 d2 | 
d8- | 
d8 | 
g8- | 
g2> b2 a b a g | 
a g ^f2 e2 d2 | 
^f2 e e e2 g d | 
d8- | 
d8- | 
d2z6 |]  



